X:0035
T:We'll gang nae mair to yon Town.
M:2/4
L:1/8
Q:1/4=104
I: :: :: ::
Z:Jack Campin * www.campin.me.uk * 2009
K:G
B|Gggd |B2Gd|BdGd|BAAB| Gggd        |B2Gd|BdAc|BGG:|
d|BGdG |eGdG|BGdG|cAAd| BGdG        |eGdG|BdAc|BGG:|
d|g>agd|B2Gd|BGdG|cAA2|(b/a/g/f/) gd|B2Gd|BdAc|BGG:|
<end>
<start>
